X:199
T:My Song Shall Be Of Jesus
%%stretchlast false
M:4/4
L:1/4
K:F clef=C1
"^v"[Cc]/ "^i"[Ff]/ "^ii"[Gg]/ "^iii"[Aa]/ "^iv"[Bb]/ "^iii"[Aa] "^ii"[Gg] | "^i"[Ff] "^vi"[Dd] "^v"[Cc] [Cc]/ | "^I²"[CFAc]/ "^ii7³"[FGBf]/ "^iii7³"[GAcg]/ "^vi"[Ada]/ [Ada]/ [GAda]/ [FGdg]/ "^I"[FAcf]/ | "^iii"[Aca]/ [Aca]5/2 "^iii¹"[CAca]/ "^i"[Ff]/ | "^i7²"[CFce]/ "^i"[Ff]/ "^ii"[Fg]/ "^I7³"[EFa]/ "^I"[EFab]/ "^i7²"[CEfc']/ "^V"[CEec']/ "^vi"[CDda]/ | [CDdg]/ "^vi7²"[A,Dca] "^II"[G,F=Bf] [G,G=Bd]/ "^ii¹"[B,Gcd] | [CGcf]/ "^IV"[B,Fdf] "^V"[CEe]/ "^iii¹"[CDea]/ "^vi"[DFfa]/ "^vii"[EFfg] | "^i"[Ff]/ [Ff]3/2 "^I¹"[A,Fcf]/ "^IV"[B,Fdf] "^V"[Ce]/ | "^i7²"[Cef]/ "^IVmaj7³"[A,Dfb]/ "^IV"[A,Deb]/ "^ii"[A,Gdb]/ "^v7"[CGcb]/ "^I²"[CFca]/ [CFcg]/ [CDcf]/ | "^vi7³"[CFda]/ "^I²"[CFca] "^I¹"[A,Fca]/ "^viiø7²"[B,Edg]/ [B,Edg]/ "^vii7¹"[G,Edg] | "^iii"[A,Eca]/ "^IVmaj7³"[A,Fdb]/ [F,Fcb]/ "^iv"[CBfb]/ [CBfb]/ "^I²"[CAfa]/ "^i"[CGfg]/ [CFf]/ | "^iii¹"[CAec']/ [CAec']/ [CAcc']/ "^I"[FAfc']/ "^Imaj7"[FAec']/ [FGfc']/ "^i"[FGgc']/ "^vi"[Df]/ | "^vi7³"[CDcf]/ "^I"[A,Ffg]/ "^iii7"[A,Gg]/ "^iv7"[B,Afa]/ "^iv"[B,Bfb]/ "^vi"[DAda] "^v"[CGcg] | "^iv"[B,Ff]/ "^ii7"[G,Ff]/ [G,Ddf]/ "^vi"[A,Dde]/ "^IV"[B,Ccd] "^V"[Ce]/ | [B,Cef]/ "^iv"[F,B,f]/ [F,B,f]/ "^i7"[F,Cef]/ "^iv7²"[F,B,fa] "^v"[Cg] | "^i"[Ff]/ [Ff]2 |]
